assets/icons/al-quran.svg

<svg width="139" height="110" viewBox="0 0 139 110" fill="none" xmlns="http://www.w3.org/2000/svg">
  <path d="M105.28 59.1416H33.7198L21.6677 94.4246L69.5 77.9271L117.332 94.4246L105.28 59.1416Z" fill="#2F302A" />
  <path d="M33.7198 24.3797L23.2539 55.9089L21.6677 59.7523L65.3218 76.3393L68.666 38.0679L33.7198 24.3797Z"
    fill="#E9A400" />
  <path d="M117.332 59.7523L115.746 55.9089L105.28 24.3797L70.334 38.0679L73.6782 76.3393L117.332 59.7523Z"
    fill="#E9A400" />
  <path d="M68.666 38.0679L65.3218 76.3393L69.5 77.9271L73.6782 76.3393L70.334 38.0679H68.666Z" fill="#F56E44" />
  <path d="M117.332 59.7523L105.28 24.3797L115.746 55.9089L117.332 59.7523Z" fill="#2F302A" />
  <path d="M33.7198 24.3797L21.6677 59.7523L23.2539 55.9089L33.7198 24.3797Z" fill="#2F302A" />
  <path
    d="M61.9695 77.9271L21.6677 94.4246L23.2539 98.268L63.8419 81.6484C62.8444 80.6794 62.1576 79.3766 61.9695 77.9271Z"
    fill="#955B3B" />
  <path
    d="M74.6839 77.2106L117.332 59.7523L115.746 55.9089L73.392 73.2531C74.2015 74.3199 74.6839 75.6471 74.6839 77.0884C74.6839 77.1291 74.6839 77.1699 74.6839 77.2106Z"
    fill="#955B3B" />
  <path
    d="M74.6839 77.0884C74.6839 75.6471 74.2015 74.3199 73.392 73.2531L61.9695 77.9271C62.1575 79.3766 62.8444 80.6794 63.8501 81.6484L74.6839 77.2106C74.6839 77.1699 74.6839 77.1291 74.6839 77.0884Z"
    fill="#2F302A" />
  <path
    d="M77.0306 77.9271L117.332 94.4246L115.746 98.268L75.1581 81.6484C76.1557 80.6794 76.8425 79.3766 77.0306 77.9271Z"
    fill="#955B3B" />
  <path
    d="M64.3161 77.2106L21.6677 59.7523L23.2539 55.9089L65.608 73.2531C64.7985 74.3198 64.3161 75.6471 64.3161 77.0884C64.3161 77.1291 64.3161 77.1699 64.3161 77.2106Z"
    fill="#955B3B" />
  <path
    d="M64.3161 77.0884C64.3161 75.6471 64.7985 74.3199 65.608 73.2531L77.0305 77.9271C76.8425 79.3766 76.1556 80.6794 75.1499 81.6484L64.3161 77.2106C64.3161 77.1699 64.3161 77.1291 64.3161 77.0884Z"
    fill="#2F302A" />
  <path
    d="M69.5 72.5773C66.998 72.5773 64.9702 74.5967 64.9702 77.0884C64.9702 79.5801 66.998 81.5996 69.5 81.5996C72.002 81.5996 74.0297 79.5801 74.0297 77.0884C74.0297 74.5967 72.002 72.5773 69.5 72.5773ZM71.307 78.1633C71.307 79.1567 70.4975 79.9629 69.5 79.9629C68.5025 79.9629 67.693 79.1567 67.693 78.1633V77.2106C67.693 76.2171 68.5025 75.411 69.5 75.411C70.4975 75.411 71.307 76.2171 71.307 77.2106V78.1633Z"
    fill="#955B3B" />
  <path
    d="M69.5 75.4191C68.5025 75.4191 67.693 76.2253 67.693 77.2187V78.1714C67.693 77.178 68.5025 76.3719 69.5 76.3719C70.4975 76.3719 71.307 77.178 71.307 78.1714V77.2187C71.307 76.2253 70.4975 75.4191 69.5 75.4191Z"
    fill="#2F302A" />
  <path
    d="M69.5 76.3637C68.5025 76.3637 67.693 77.1699 67.693 78.1633C67.693 79.1567 68.5025 79.9629 69.5 79.9629C70.4975 79.9629 71.307 79.1567 71.307 78.1633C71.307 77.1699 70.4975 76.3637 69.5 76.3637Z"
    fill="#F7F3E7" />
  <path
    d="M69.5 75.4191C68.5025 75.4191 67.693 76.2253 67.693 77.2187V78.1714C67.693 77.178 68.5025 76.3719 69.5 76.3719C70.4975 76.3719 71.307 77.178 71.307 78.1714V77.2187C71.307 76.2253 70.4975 75.4191 69.5 75.4191Z"
    fill="#2F302A" />
  <path
    d="M69.5 76.3637C68.5025 76.3637 67.693 77.1699 67.693 78.1633C67.693 79.1567 68.5025 79.9629 69.5 79.9629C70.4975 79.9629 71.307 79.1567 71.307 78.1633C71.307 77.1699 70.4975 76.3637 69.5 76.3637Z"
    fill="#F7F3E7" />
  <path d="M38.6829 24.9986L29.329 54.3291L65.9923 68.2616L68.4861 36.4637L38.6829 24.9986Z" fill="#1E4F47" />
  <path d="M100.317 24.9986L109.671 54.3291L73.0077 68.2616L70.5139 36.4637L100.317 24.9986Z" fill="#1E4F47" />
  <path d="M70.5139 36.4637H69.5H68.4861L65.9923 68.2616H69.5H73.0077L70.5139 36.4637Z" fill="#2F302A" />
  <path
    d="M39.6968 47.6683L33.6871 46.7156L32.5914 52.8634L66.254 65.493L69.5 60.3956L64.9539 57.4153C57.3334 52.4156 48.7154 49.0933 39.6968 47.6683Z"
    fill="#E2D3AF" />
  <path d="M69.5 65.5011V60.4037L66.254 65.5011H69.5Z" fill="#D8C18F" />
  <path
    d="M69.5 31.1546C61.4053 25.6337 52.1495 22.0346 42.4441 20.634L42.0352 20.577L33.6953 46.7237L39.705 47.6764C48.7236 49.1014 57.3334 52.4237 64.9621 57.4316L69.5082 60.4119L69.5 31.1546Z"
    fill="#F7F3E7" />
  <path
    d="M67.0226 55.2737L65.698 54.4269C61.9368 52.0166 57.914 49.9809 53.744 48.3686C49.345 46.6667 44.7499 45.4371 40.0893 44.6961L36.9332 44.1994L43.7605 22.8081L44.5046 22.9466C52.3049 24.396 59.9581 27.417 66.6301 31.692L67.0226 31.9444V55.2737ZM39.1653 42.8233L40.3509 43.0106C45.1342 43.7679 49.8438 45.03 54.3654 46.7726C58.1593 48.2383 61.8305 50.046 65.3055 52.1631V32.8727C59.1241 28.9886 52.1087 26.1956 44.9298 24.7624L39.1653 42.8233Z"
    fill="#F56E44" />
  <path
    d="M99.3032 47.6683L105.313 46.7156L106.409 52.8634L72.7461 65.5012L69.5 60.4037L74.0461 57.4234C81.6666 52.4156 90.2846 49.0933 99.3032 47.6683Z"
    fill="#E2D3AF" />
  <path d="M69.5 65.5011V60.4037L72.7461 65.5011H69.5Z" fill="#D8C18F" />
  <path
    d="M98.6409 43.0106L99.8265 42.8233L94.0621 24.7706C89.4506 25.6907 84.9045 27.1727 80.6036 29.1433C76.2946 34.656 73.7191 41.5856 73.7191 49.1177C73.7191 50.1111 73.7681 51.0964 73.8499 52.0654C77.2758 49.9971 80.8898 48.222 84.6101 46.7807C89.1481 45.0381 93.8577 43.7679 98.6409 43.0106Z"
    fill="#F7F3E7" />
  <path
    d="M80.6118 29.1433C78.2161 30.2426 75.9022 31.4884 73.6945 32.8809V52.1713C73.7518 52.1387 73.809 52.098 73.8662 52.0654C73.7763 51.0964 73.7354 50.1111 73.7354 49.1177C73.7354 41.5856 76.3028 34.656 80.6118 29.1433Z"
    fill="#EFE6CE" />
  <path
    d="M73.3021 54.4269L71.9775 55.2737V31.9444L72.3699 31.692C75.7714 29.5097 79.4344 27.6613 83.2365 26.1711C84.5202 24.8846 85.9102 23.7039 87.3983 22.6534C81.0452 24.5426 75.0028 27.4089 69.5 31.1627V60.4119L74.0461 57.4316C74.2669 57.285 74.4876 57.1466 74.7002 57.0081C74.4468 56.0066 74.2424 54.9806 74.087 53.9383C73.8254 54.093 73.5637 54.2559 73.3021 54.4269Z"
    fill="#EFE6CE" />
  <path
    d="M105.305 46.7237L96.9647 20.577L96.5559 20.634C93.4489 21.0819 90.3909 21.7577 87.4065 22.6453C85.9265 23.7039 84.5283 24.8846 83.2446 26.163C86.8913 24.738 90.677 23.6469 94.5036 22.9384L95.2477 22.8L102.075 44.1913L98.9189 44.688C94.2583 45.4209 89.6632 46.6586 85.2642 48.3604C81.3886 49.8587 77.6356 51.7234 74.1033 53.922C74.2587 54.9643 74.4631 55.9821 74.7166 56.9919C82.1817 52.2283 90.5544 49.0444 99.3114 47.6601L105.305 46.7237Z"
    fill="#F7F3E7" />
  <path
    d="M71.9775 31.9444V55.2819L73.3021 54.435C73.5637 54.264 73.8254 54.1011 74.0952 53.9383C74.0052 53.3194 73.9317 52.7006 73.8744 52.0654C73.8172 52.098 73.76 52.1306 73.7027 52.1713V32.8727C75.9104 31.4803 78.2325 30.2344 80.62 29.1351C81.4377 28.0929 82.3125 27.0994 83.2447 26.163C79.4426 27.6531 75.7795 29.5016 72.3781 31.6839L71.9775 31.9444Z"
    fill="#955B3B" />
  <path
    d="M94.0703 24.7706L99.8347 42.8233L98.6491 43.0106C93.8659 43.7679 89.1562 45.03 84.6346 46.7726C80.9062 48.2139 77.2922 49.989 73.8744 52.0573C73.9316 52.6843 74.0052 53.3113 74.0952 53.9301C77.6274 51.7397 81.3804 49.8669 85.256 48.3686C89.655 46.6667 94.2501 45.4371 98.9107 44.6961L102.067 44.1994L95.2395 22.8081L94.4954 22.9466C90.677 23.655 86.8913 24.7461 83.2364 26.1711C82.3043 27.1076 81.4213 28.101 80.6118 29.1433C84.9126 27.1727 89.4587 25.6907 94.0703 24.7706Z"
    fill="#F56E44" />
  <path
    d="M31.2586 15.732L32.0845 18.3621L34.7255 19.1927L32.0845 20.0151L31.2586 22.6453L30.4246 20.0151L27.7836 19.1927L30.4246 18.3621L31.2586 15.732Z"
    fill="#F7F3E7" />
  <path
    d="M114.675 27.531L115.378 29.7459L117.602 30.4461L115.378 31.1464L114.675 33.3613L113.972 31.1464L111.748 30.4461L113.972 29.7459L114.675 27.531Z"
    fill="#F7F3E7" />
  <path
    d="M26.6389 65.9164L27.2031 67.6997L29.0019 68.2616L27.2031 68.8234L26.6389 70.6067L26.0748 68.8234L24.2841 68.2616L26.0748 67.6997L26.6389 65.9164Z"
    fill="#F7F3E7" />
  <path
    d="M75.1254 20.6747L75.6323 22.2789L77.2349 22.7837L75.6323 23.2886L75.1254 24.8927L74.6185 23.2886L73.0077 22.7837L74.6185 22.2789L75.1254 20.6747Z"
    fill="#F7F3E7" />
</svg>

<svg width="139" height="110" fill="none" xmlns="http://www.w3.org/2000/svg"><path d="M105.28 59.142H33.72L21.668 94.425 69.5 77.927l47.832 16.498-12.052-35.283z" fill="#2F302A"/><path d="M33.72 24.38 23.254 55.909l-1.586 3.843L65.322 76.34l3.344-38.271L33.72 24.38zm83.612 35.372-1.586-3.843-10.466-31.53-34.946 13.689 3.344 38.271 43.654-16.587z" fill="#E9A400"/><path d="m68.666 38.068-3.344 38.271 4.178 1.588 4.178-1.588-3.344-38.271h-1.668z" fill="#F56E44"/><path d="M117.332 59.752 105.28 24.38l10.466 31.529 1.586 3.843zM33.72 24.38 21.668 59.752l1.586-3.843 10.466-31.53z" fill="#2F302A"/><path d="M61.97 77.927 21.667 94.425l1.586 3.843 40.588-16.62a6.336 6.336 0 0 1-1.873-3.72zm12.714-.717 42.648-17.458-1.586-3.843-42.354 17.344a6.322 6.322 0 0 1 1.292 3.835v.123z" fill="#955B3B"/><path d="M74.684 77.088a6.322 6.322 0 0 0-1.292-3.835L61.97 77.927a6.3 6.3 0 0 0 1.88 3.721l10.834-4.437v-.123z" fill="#2F302A"/><path d="m77.03 77.927 40.302 16.498-1.586 3.843-40.588-16.62a6.335 6.335 0 0 0 1.873-3.72zm-12.714-.717L21.668 59.753l1.586-3.843 42.354 17.344a6.321 6.321 0 0 0-1.292 3.835v.123z" fill="#955B3B"/><path d="M64.316 77.088c0-1.44.483-2.768 1.292-3.835l11.422 4.674a6.3 6.3 0 0 1-1.88 3.721l-10.834-4.437v-.123z" fill="#2F302A"/><path d="M69.5 72.577c-2.502 0-4.53 2.02-4.53 4.511 0 2.492 2.028 4.512 4.53 4.512 2.502 0 4.53-2.02 4.53-4.512 0-2.491-2.028-4.51-4.53-4.51zm1.807 5.586c0 .994-.81 1.8-1.807 1.8a1.804 1.804 0 0 1-1.807-1.8v-.952c0-.994.81-1.8 1.807-1.8.998 0 1.807.806 1.807 1.8v.952z" fill="#955B3B"/><path d="M69.5 75.42c-.998 0-1.807.805-1.807 1.799v.952c0-.993.81-1.8 1.807-1.8.998 0 1.807.807 1.807 1.8v-.952c0-.994-.81-1.8-1.807-1.8z" fill="#2F302A"/><path d="M69.5 76.364c-.998 0-1.807.806-1.807 1.8 0 .993.81 1.799 1.807 1.799.998 0 1.807-.806 1.807-1.8 0-.993-.81-1.8-1.807-1.8z" fill="#F7F3E7"/><path d="M69.5 75.42c-.998 0-1.807.805-1.807 1.799v.952c0-.993.81-1.8 1.807-1.8.998 0 1.807.807 1.807 1.8v-.952c0-.994-.81-1.8-1.807-1.8z" fill="#2F302A"/><path d="M69.5 76.364c-.998 0-1.807.806-1.807 1.8 0 .993.81 1.799 1.807 1.799.998 0 1.807-.806 1.807-1.8 0-.993-.81-1.8-1.807-1.8z" fill="#F7F3E7"/><path d="m38.683 24.999-9.354 29.33 36.663 13.933 2.494-31.798-29.803-11.465zm61.634 0 9.354 29.33-36.663 13.933-2.494-31.798 29.803-11.465z" fill="#1E4F47"/><path d="M70.514 36.464h-2.028l-2.494 31.798h7.016l-2.494-31.798z" fill="#2F302A"/><path d="m39.697 47.668-6.01-.952-1.096 6.147 33.663 12.63 3.246-5.097-4.546-2.98a64.37 64.37 0 0 0-25.257-9.748z" fill="#E2D3AF"/><path d="M69.5 65.501v-5.097L66.254 65.5H69.5z" fill="#D8C18F"/><path d="M69.5 31.155a64.325 64.325 0 0 0-27.056-10.521l-.409-.057-8.34 26.147 6.01.952a64.306 64.306 0 0 1 25.257 9.756l4.546 2.98-.008-29.257z" fill="#F7F3E7"/><path d="m67.023 55.274-1.325-.847a66.939 66.939 0 0 0-11.954-6.058 67.11 67.11 0 0 0-13.655-3.673l-3.156-.497 6.828-21.39.744.138c7.8 1.449 15.453 4.47 22.125 8.745l.393.252v23.33zm-27.858-12.45 1.186.187a69.038 69.038 0 0 1 14.014 3.762 68.498 68.498 0 0 1 10.94 5.39v-19.29a61.083 61.083 0 0 0-20.375-8.11l-5.765 18.06z" fill="#F56E44"/><path d="m99.303 47.668 6.01-.952 1.096 6.147-33.663 12.638-3.246-5.097 4.546-2.98a64.26 64.26 0 0 1 25.257-9.756z" fill="#E2D3AF"/><path d="M69.5 65.501v-5.097l3.246 5.097H69.5z" fill="#D8C18F"/><path d="m98.64 43.01 1.186-.187-5.764-18.052a61.16 61.16 0 0 0-13.458 4.372 32.322 32.322 0 0 0-6.885 19.975c0 .993.05 1.978.13 2.947a69.297 69.297 0 0 1 10.761-5.284 69.497 69.497 0 0 1 14.03-3.77z" fill="#F7F3E7"/><path d="M80.612 29.143a59.394 59.394 0 0 0-6.917 3.738v19.29c.057-.032.114-.073.171-.106-.09-.969-.13-1.954-.13-2.947a32.316 32.316 0 0 1 6.876-19.975z" fill="#EFE6CE"/><path d="m73.302 54.427-1.325.847v-23.33l.393-.252a62.168 62.168 0 0 1 10.867-5.52 31.765 31.765 0 0 1 4.161-3.519 64.276 64.276 0 0 0-17.898 8.51v29.249l4.546-2.98c.22-.147.442-.285.654-.424a31.4 31.4 0 0 1-.613-3.07c-.262.155-.523.318-.785.489z" fill="#EFE6CE"/><path d="m105.305 46.724-8.34-26.147-.41.057a64.268 64.268 0 0 0-9.149 2.011 33.657 33.657 0 0 0-4.161 3.518 62.062 62.062 0 0 1 11.259-3.225l.744-.138 6.827 21.391-3.156.497a66.595 66.595 0 0 0-13.655 3.672 66.606 66.606 0 0 0-11.16 5.562c.155 1.042.36 2.06.613 3.07A64.436 64.436 0 0 1 99.31 47.66l5.994-.936z" fill="#F7F3E7"/><path d="M71.978 31.944v23.338l1.324-.847c.262-.171.523-.334.793-.497a34.484 34.484 0 0 1-.22-1.873 2.1 2.1 0 0 0-.172.106V32.873a60.082 60.082 0 0 1 6.917-3.738 33.655 33.655 0 0 1 2.625-2.972 62.158 62.158 0 0 0-10.867 5.52l-.4.261z" fill="#955B3B"/><path d="m94.07 24.77 5.765 18.053-1.186.188a69.04 69.04 0 0 0-14.014 3.762 68.593 68.593 0 0 0-10.76 5.284c.057.627.13 1.254.22 1.873a67.23 67.23 0 0 1 11.161-5.561 67.11 67.11 0 0 1 13.655-3.673l3.156-.497-6.827-21.39-.745.138a62.434 62.434 0 0 0-11.259 3.224 32.395 32.395 0 0 0-2.624 2.972 61.158 61.158 0 0 1 13.458-4.372z" fill="#F56E44"/><path d="m31.259 15.732.825 2.63 2.641.83-2.64.823-.826 2.63-.834-2.63-2.641-.822 2.64-.83.835-2.631zm83.416 11.799.703 2.215 2.224.7-2.224.7-.703 2.215-.703-2.215-2.224-.7 2.224-.7.703-2.215zM26.639 65.916l.564 1.784 1.799.562-1.799.561-.564 1.784-.564-1.784-1.79-.561 1.79-.562.564-1.784zm48.486-45.241.507 1.604 1.603.505-1.603.505-.507 1.604-.507-1.604-1.61-.505 1.61-.505.507-1.604z" fill="#F7F3E7"/></svg>
